packages/tokens/icons/caseSubmission/size24Px.svg

<svg viewBox="0 0 24 24" fill="none" xmlns="http://www.w3.org/2000/svg" width="1em" height="1em"><path fill-rule="evenodd" clip-rule="evenodd" d="M21 15.5C21 15.2239 20.7761 15 20.5 15C20.2239 15 20 15.2239 20 15.5V17.5C20 17.7761 19.7761 18 19.5 18H16.9146C16.7087 17.4174 16.1531 17 15.5 17H14.5C13.6716 17 13 17.6716 13 18.5C13 19.3284 13.6716 20 14.5 20H15.5C15.9711 20 16.3915 19.7828 16.6665 19.4431C16.7728 19.3118 16.8573 19.1623 16.9146 19H19.5C20.3284 19 21 18.3284 21 17.5V15.5ZM16 18.5C16 18.2239 15.7761 18 15.5 18H14.5C14.2239 18 14 18.2239 14 18.5C14 18.7761 14.2239 19 14.5 19H15.5C15.7761 19 16 18.7761 16 18.5Z" fill="currentColor"/><path fill-rule="evenodd" clip-rule="evenodd" d="M11.5 12H11.6667C11.8508 12 12 12.1492 12 12.3333V14.6667C12 14.8508 11.8508 15 11.6667 15H11.5C10.6716 15 10 14.3284 10 13.5C10 12.6716 10.6716 12 11.5 12ZM9 13.5C9 12.1193 10.1193 11 11.5 11H11.6667C12.403 11 13 11.597 13 12.3333V14.6667C13 15.403 12.403 16 11.6667 16H11.5C10.1193 16 9 14.8807 9 13.5ZM19.5 12H19.3333C19.1492 12 19 12.1492 19 12.3333V14.6667C19 14.8508 19.1492 15 19.3333 15H19.5C20.3284 15 21 14.3284 21 13.5C21 12.6716 20.3284 12 19.5 12ZM22 13.5C22 12.1193 20.8807 11 19.5 11H19.3333C18.597 11 18 11.597 18 12.3333V14.6667C18 15.403 18.597 16 19.3333 16H19.5C20.8807 16 22 14.8807 22 13.5Z" fill="currentColor"/><path d="M21.5 13.5V10.5C21.5 7.18629 18.8137 4.5 15.5 4.5V4.5C12.1863 4.5 9.5 7.18629 9.5 10.5V13.5" stroke="currentColor" stroke-linecap="round"/><path d="M6.5 12H2.5" stroke="currentColor" stroke-linecap="round"/><path d="M4.5 14.2426L6.62132 12.1213L4.5 10" stroke="currentColor" stroke-linecap="round" stroke-linejoin="round"/></svg>

<svg xmlns="http://www.w3.org/2000/svg" fill="none" viewBox="0 0 24 24" width="1em" height="1em"><path fill="currentColor" fill-rule="evenodd" d="M21 15.5a.5.5 0 0 0-1 0v2a.5.5 0 0 1-.5.5h-2.585a1.5 1.5 0 0 0-1.415-1h-1a1.5 1.5 0 0 0 0 3h1a1.497 1.497 0 0 0 1.415-1H19.5a1.5 1.5 0 0 0 1.5-1.5v-2Zm-5 3a.5.5 0 0 0-.5-.5h-1a.5.5 0 0 0 0 1h1a.5.5 0 0 0 .5-.5Z" clip-rule="evenodd"/><path fill="currentColor" fill-rule="evenodd" d="M11.5 12h.167c.184 0 .333.15.333.333v2.334c0 .184-.15.333-.333.333H11.5a1.5 1.5 0 0 1 0-3ZM9 13.5a2.5 2.5 0 0 1 2.5-2.5h.167c.736 0 1.333.597 1.333 1.333v2.334c0 .736-.597 1.333-1.333 1.333H11.5A2.5 2.5 0 0 1 9 13.5ZM19.5 12h-.167a.333.333 0 0 0-.333.333v2.334c0 .184.15.333.333.333h.167a1.5 1.5 0 0 0 0-3Zm2.5 1.5a2.5 2.5 0 0 0-2.5-2.5h-.167c-.736 0-1.333.597-1.333 1.333v2.334c0 .736.597 1.333 1.333 1.333h.167a2.5 2.5 0 0 0 2.5-2.5Z" clip-rule="evenodd"/><path stroke="currentColor" stroke-linecap="round" d="M21.5 13.5v-3a6 6 0 0 0-6-6v0a6 6 0 0 0-6 6v3m-3-1.5h-4"/><path stroke="currentColor" stroke-linecap="round" stroke-linejoin="round" d="m4.5 14.243 2.121-2.122L4.5 10"/></svg>
